src/assets/outline/TextalignRight.svg

<svg width="24" height="24" viewBox="0 0 24 24"  xmlns="http://www.w3.org/2000/svg">
<path d="M21 5.25H3C2.59 5.25 2.25 4.91 2.25 4.5C2.25 4.09 2.59 3.75 3 3.75H21C21.41 3.75 21.75 4.09 21.75 4.5C21.75 4.91 21.41 5.25 21 5.25Z" />
<path d="M20.9998 10.25H11.5298C11.1198 10.25 10.7798 9.91 10.7798 9.5C10.7798 9.09 11.1198 8.75 11.5298 8.75H20.9998C21.4098 8.75 21.7498 9.09 21.7498 9.5C21.7498 9.91 21.4098 10.25 20.9998 10.25Z" />
<path d="M21 15.25H3C2.59 15.25 2.25 14.91 2.25 14.5C2.25 14.09 2.59 13.75 3 13.75H21C21.41 13.75 21.75 14.09 21.75 14.5C21.75 14.91 21.41 15.25 21 15.25Z" />
<path d="M20.9998 20.25H11.5298C11.1198 20.25 10.7798 19.91 10.7798 19.5C10.7798 19.09 11.1198 18.75 11.5298 18.75H20.9998C21.4098 18.75 21.7498 19.09 21.7498 19.5C21.7498 19.91 21.4098 20.25 20.9998 20.25Z" />
</svg>

<?xml version="1.0" encoding="UTF-8"?>
<svg width="24" height="24" viewBox="0 0 24 24" xmlns="http://www.w3.org/2000/svg">
 <path d="m21 5.25h-18c-0.41 0-0.75-0.34-0.75-0.75s0.34-0.75 0.75-0.75h18c0.41 0 0.75 0.34 0.75 0.75s-0.34 0.75-0.75 0.75z"/>
 <path d="m21 10.25h-9.47c-0.41 0-0.75-0.34-0.75-0.75s0.34-0.75 0.75-0.75h9.47c0.41 0 0.75 0.34 0.75 0.75s-0.34 0.75-0.75 0.75z"/>
 <path d="m21 15.25h-18c-0.41 0-0.75-0.34-0.75-0.75s0.34-0.75 0.75-0.75h18c0.41 0 0.75 0.34 0.75 0.75s-0.34 0.75-0.75 0.75z"/>
 <path d="m21 20.25h-9.47c-0.41 0-0.75-0.34-0.75-0.75s0.34-0.75 0.75-0.75h9.47c0.41 0 0.75 0.34 0.75 0.75s-0.34 0.75-0.75 0.75z"/>
</svg>
